_includes/icons/ios-zip-file.svg

<svg fill="#666" height="50" viewBox="0 0 50 50" width="50" xmlns="http://www.w3.org/2000/svg"><path d="m7 2v46h36v-32.589844l-13.816406-13.410156zm2 2h19v13h13v29h-32zm21 1.578125 9.707031 9.421875h-9.707031zm.21875 17.191406c-.835937 0-1.613281.089844-2.21875.230469v10h2v-2.890625c.175781.015625.214844.015625.410156.015625 1.011719 0 2.164063-.40625 2.871094-1.238281.550781-.640625.890625-1.457031.890625-2.660156 0-1.027344-.320312-1.949219-.957031-2.554688-.710938-.671875-1.738281-.902344-2.996094-.902344zm-14.21875.230469v1.648438h3.875v.035156l-3.875 7.199219v1.117187h6v-1.648437h-3.75v-.054688l3.75-6.933594v-1.363281zm8 0v10h2l.003906-10zm6.535156 1.3125c1.277344 0 1.738282.9375 1.738282 2.054688 0 1.367187-.691407 2.214843-1.929688 2.214843-.195312 0-.203125 0-.34375-.035156v-4.144531c.160156-.054688.269531-.089844.535156-.089844z"/></svg>

<svg xmlns="http://www.w3.org/2000/svg" viewBox="0 0 50 50" width="50" height="50" fill="#666"><path d="M 7 2 L 7 48 L 43 48 L 43 15.410156 L 29.183594 2 Z M 9 4 L 28 4 L 28 17 L 41 17 L 41 46 L 9 46 Z M 30 5.578125 L 39.707031 15 L 30 15 Z M 30.21875 22.769531 C 29.382813 22.769531 28.605469 22.859375 28 23 L 28 33 L 30 33 L 30 30.109375 C 30.175781 30.125 30.214844 30.125 30.410156 30.125 C 31.421875 30.125 32.574219 29.71875 33.28125 28.886719 C 33.832031 28.246094 34.171875 27.429688 34.171875 26.226563 C 34.171875 25.199219 33.851563 24.277344 33.214844 23.671875 C 32.503906 23 31.476563 22.769531 30.21875 22.769531 Z M 16 23 L 16 24.648438 L 19.875 24.648438 L 19.875 24.683594 L 16 31.882813 L 16 33 L 22 33 L 22 31.351563 L 18.25 31.351563 L 18.25 31.296875 L 22 24.363281 L 22 23 Z M 24 23 L 24 33 L 26 33 L 26.003906 23 Z M 30.535156 24.3125 C 31.8125 24.3125 32.273438 25.25 32.273438 26.367188 C 32.273438 27.734375 31.582031 28.582031 30.34375 28.582031 C 30.148438 28.582031 30.140625 28.582031 30 28.546875 L 30 24.402344 C 30.160156 24.347656 30.269531 24.3125 30.535156 24.3125 Z"/></svg>
